;FLAVOR:Marlin
;TIME:3055
;Filament used: 1.36632m
;Layer height: 0.16
;MINX:93.344
;MINY:68.536
;MINZ:0.2
;MAXX:141.655
;MAXY:166.469
;MAXZ:3.24
;POSTPROCESSED
;Generated with Cura_SteamEngine 4.13.1
M140 S60
M105
M190 S60
M104 S200
M105
M109 S200
M82 ;absolute extrusion mode
; Ender 3 Custom Start G-code
G92 E0 ; Reset Extruder
G28 ; Home all axes
G1 Z2.0 F3000 ; Move Z Axis up little to prevent scratching of Heat Bed
G1 X0.1 Y20 Z0.3 F5000.0 ; Move to start position
G1 X0.1 Y200.0 Z0.3 F1500.0 E15 ; Draw the first line
G1 X0.4 Y200.0 Z0.3 F5000.0 ; Move to side a little
G1 X0.4 Y20 Z0.3 F1500.0 E30 ; Draw the second line
G92 E0 ; Reset Extruder
G1 Z2.0 F3000 ; Move Z Axis up little to prevent scratching of Heat Bed
G1 X5 Y20 Z0.3 F5000.0 ; Move over to prevent blob squish
G92 E0
G92 E0
G1 F2700 E-5
;LAYER_COUNT:20
;LAYER:0
M117 Layer 0 of 19 CE3_Untitled
M107
G0 F6000 X96.853 Y80.198 Z0.2
;TYPE:SKIRT
G1 F2700 E0
G1 F1200 X96.997 Y80.043 E0.00704
G1 X97.32 Y79.711 E0.02244
G1 X97.393 Y79.639 E0.02585
G1 X98.075 Y79.022 E0.05644
G1 X98.463 Y78.716 E0.07288
G1 X98.778 Y78.479 E0.08599
G1 X99.537 Y77.958 E0.11661
G1 X100.08 Y77.64 E0.13754
G1 X100.446 Y77.445 E0.15133
G1 X100.89 Y77.219 E0.1679
G1 X115.086 Y70.146 E0.69542
G1 X115.749 Y69.827 E0.71989
G1 X116.235 Y69.608 E0.73762
G1 X116.38 Y69.547 E0.74285
G1 X116.881 Y69.351 E0.76075
G1 X117.171 Y69.246 E0.77101
G1 X118.05 Y68.971 E0.80164
G1 X118.922 Y68.777 E0.83135
G1 X119.287 Y68.712 E0.84368
G1 X119.633 Y68.656 E0.85534
G1 X119.744 Y68.64 E0.85907
G1 X120.66 Y68.549 E0.88969
G1 X121.536 Y68.536 E0.91882
G1 X121.914 Y68.546 E0.9314
G1 X122.29 Y68.562 E0.94392
G1 X122.419 Y68.57 E0.94822
G1 X123.335 Y68.667 E0.97885
G1 X124.163 Y68.825 E1.00689
G1 X124.609 Y68.931 E1.02214
G1 X124.813 Y68.983 E1.02914
G1 X125.695 Y69.249 E1.05978
G1 X126.55 Y69.591 E1.09041
G1 X127.694 Y70.193 E1.1334
G1 X129.163 Y71.084 E1.19055
G1 X129.433 Y71.24 E1.20092
G1 X130.143 Y71.675 E1.22861
G1 X131.897 Y72.678 E1.29582
G1 X132.102 Y72.807 E1.30387
G1 X133.095 Y73.37 E1.34184
G1 X133.492 Y73.605 E1.35718
G1 X133.936 Y73.888 E1.3747
G1 X134.223 Y74.081 E1.3862
G1 X134.964 Y74.627 E1.41681
G1 X135.393 Y74.993 E1.43557
G1 X135.61 Y75.188 E1.44527
G1 X135.838 Y75.399 E1.4556
G1 X135.987 Y75.541 E1.46245
G1 X136.625 Y76.204 E1.49305
G1 X137.015 Y76.672 E1.51332
G1 X137.255 Y76.978 E1.52625
G1 X137.488 Y77.286 E1.5391
G1 X138.005 Y78.047 E1.5697
G1 X138.347 Y78.642 E1.59252
G1 X138.532 Y78.99 E1.60563
G1 X138.733 Y79.387 E1.62043
G1 X139.106 Y80.229 E1.65106
G1 X139.305 Y80.779 E1.67051
G1 X139.399 Y81.064 E1.68049
G1 X139.484 Y81.334 E1.68991
G1 X139.545 Y81.537 E1.69696
G1 X139.629 Y81.831 E1.70713
G1 X139.685 Y82.039 E1.71429
G1 X139.757 Y82.323 E1.72404
G1 X139.842 Y82.681 E1.73628
G1 X140.976 Y87.596 E1.90404
G1 X141.107 Y88.199 E1.92457
G1 X141.153 Y88.42 E1.93208
G1 X141.262 Y88.979 E1.95102
G1 X141.355 Y89.534 E1.96974
G1 X141.428 Y90.054 E1.9872
G1 X141.484 Y90.529 E2.00311
G1 X141.518 Y90.888 E2.0151
G1 X141.555 Y91.423 E2.03294
G1 X141.561 Y91.56 E2.0375
G1 X141.57 Y91.9 E2.04881
G1 X141.576 Y92.433 E2.06654
G1 X141.655 Y136.329 E3.52653
G1 X141.655 Y147.541 E3.89944
G1 X141.645 Y148.255 E3.92319
G1 X141.621 Y148.834 E3.94247
G1 X141.612 Y148.965 E3.94683
G1 X141.559 Y149.522 E3.96544
G1 X141.513 Y149.899 E3.97808
G1 X141.362 Y150.807 E4.00869
G1 X141.131 Y151.704 E4.0395
G1 X141.085 Y151.855 E4.04475
G1 X140.952 Y152.262 E4.05899
G1 X140.836 Y152.594 E4.07069
G1 X140.495 Y153.449 E4.1013
G1 X140.178 Y154.094 E4.12521
G1 X140.108 Y154.225 E4.13015
G1 X139.807 Y154.752 E4.15033
G1 X139.619 Y155.06 E4.16233
G1 X139.105 Y155.824 E4.19296
G1 X138.565 Y156.498 E4.22169
G1 X138.464 Y156.614 E4.2268
G1 X138.142 Y156.967 E4.24269
G1 X137.897 Y157.224 E4.2545
G1 X137.234 Y157.862 E4.28511
G1 X136.513 Y158.444 E4.31592
G1 X136.38 Y158.542 E4.32142
G1 X136.038 Y158.784 E4.33535
G1 X135.731 Y158.992 E4.34769
G1 X135.186 Y159.337 E4.36914
G1 X134.877 Y159.516 E4.38102
G1 X134.462 Y159.749 E4.39685
G1 X125.508 Y164.674 E4.73674
G1 X124.892 Y165.002 E4.75995
G1 X124.053 Y165.403 E4.79088
G1 X123.907 Y165.465 E4.79615
G1 X123.49 Y165.632 E4.81109
G1 X123.213 Y165.736 E4.82093
G1 X122.338 Y166.021 E4.85154
G1 X121.441 Y166.23 E4.88217
G1 X120.892 Y166.319 E4.90067
G1 X120.533 Y166.367 E4.91272
G1 X120.127 Y166.413 E4.92631
G1 X119.208 Y166.469 E4.95693
G1 X118.288 Y166.445 E4.98754
G1 X117.67 Y166.384 E5.0082
G1 X117.336 Y166.341 E5.0194
G1 X117.004 Y166.293 E5.03055
G1 X116.886 Y166.274 E5.03453
G1 X115.984 Y166.089 E5.06515
G1 X115.102 Y165.825 E5.09578
G1 X114.556 Y165.619 E5.11519
G1 X114.253 Y165.495 E5.12607
G1 X113.969 Y165.374 E5.13634
G1 X113.827 Y165.311 E5.14151
G1 X112.997 Y164.899 E5.17233
G1 X112.67 Y164.717 E5.18478
G1 X110.752 Y163.624 E5.2582
G1 X108.545 Y162.45 E5.34134
G1 X106.307 Y161.338 E5.42446
G1 X104.669 Y160.59 E5.48435
G1 X103.436 Y160.018 E5.52956
G1 X102.619 Y159.594 E5.56018
G1 X101.584 Y158.917 E5.60131
G1 X101.209 Y158.639 E5.61684
G1 X100.494 Y158.059 E5.64746
G1 X99.832 Y157.42 E5.67806
G1 X99.214 Y156.707 E5.70944
G1 X98.943 Y156.365 E5.72396
G1 X98.567 Y155.861 E5.74487
G1 X98.069 Y155.086 E5.77551
G1 X97.514 Y153.992 E5.81631
G1 X97.358 Y153.635 E5.82927
G1 X97.172 Y153.182 E5.84556
G1 X96.875 Y152.311 E5.87617
G1 X96.655 Y151.417 E5.90679
G1 X96.564 Y150.899 E5.92428
G1 X96.493 Y150.424 E5.94025
G1 X96.385 Y149.257 E5.97923
G1 X96.375 Y148.992 E5.98805
G1 X96.367 Y148.671 E5.99873
G1 X96.365 Y148.404 E6.00761
G1 X96.365 Y146.152 E6.08252
G1 X96.328 Y143.527 E6.16983
G1 X96.221 Y141.018 E6.25336
G1 X96.043 Y138.498 E6.33738
G1 X95.794 Y135.984 E6.42141
G1 X95.475 Y133.495 E6.50487
G1 X95.074 Y130.943 E6.59079
G1 X94.618 Y128.489 E6.67381
G1 X94.087 Y126.019 E6.75784
G1 X93.74 Y124.566 E6.80752
G1 X93.683 Y124.338 E6.81534
G1 X93.464 Y123.193 E6.85411
G1 X93.455 Y123.126 E6.85636
G1 X93.363 Y121.902 E6.89719
G1 X93.344 Y120.753 E6.93541
G1 X93.346 Y89.998 E7.95832
G1 X93.357 Y89.285 E7.98204
G1 X93.437 Y88.138 E8.02028
G1 X93.481 Y87.785 E8.03212
G1 X93.53 Y87.44 E8.04371
G1 X93.589 Y87.067 E8.05627
G1 X93.756 Y86.231 E8.08462
G1 X93.823 Y85.954 E8.0941
G1 X94.046 Y85.168 E8.12127
G1 X94.166 Y84.799 E8.13418
G1 X94.644 Y83.587 E8.17751
G1 X94.81 Y83.232 E8.19055
G1 X95.236 Y82.416 E8.22116
G1 X95.539 Y81.922 E8.24044
G1 X95.69 Y81.691 E8.24962
G1 X95.952 Y81.309 E8.26502
G1 X96.008 Y81.231 E8.26822
G1 X96.853 Y80.198 E8.31261
G0 F6000 X97.146 Y80.471
G1 F1200 X97.29 Y80.316 E8.31964
G1 X97.6 Y79.996 E8.33446
G1 X97.673 Y79.924 E8.33787
G1 X98.344 Y79.319 E8.36792
G1 X98.704 Y79.035 E8.38317
G1 X99.019 Y78.798 E8.39628
G1 X99.764 Y78.288 E8.42631
G1 X100.272 Y77.992 E8.44587
G1 X100.628 Y77.801 E8.4593
G1 X101.069 Y77.577 E8.47575
G1 X115.26 Y70.507 E9.00308
G1 X115.923 Y70.188 E9.02755
G1 X116.39 Y69.977 E9.0446
G1 X116.535 Y69.916 E9.04983
G1 X117.018 Y69.727 E9.06708
G1 X117.308 Y69.622 E9.07734
G1 X118.169 Y69.353 E9.10734
G1 X118.992 Y69.171 E9.13538
G1 X119.357 Y69.106 E9.14771
G1 X119.69 Y69.052 E9.15893
G1 X119.801 Y69.036 E9.16266
G1 X120.699 Y68.947 E9.19267
G1 X121.526 Y68.936 E9.22018
G1 X121.904 Y68.946 E9.23276
G1 X122.265 Y68.962 E9.24477
G1 X122.394 Y68.97 E9.24907
G1 X123.292 Y69.065 E9.27911
G1 X124.072 Y69.215 E9.30553
G1 X124.51 Y69.319 E9.3205
G1 X124.714 Y69.371 E9.3275
G1 X125.579 Y69.633 E9.35756
G1 X126.417 Y69.97 E9.3876
G1 X127.486 Y70.535 E9.42782
G1 X129.103 Y71.516 E9.49072
G1 X129.224 Y71.581 E9.49529
G1 X129.941 Y72.021 E9.52327
G1 X131.698 Y73.025 E9.59058
G1 X131.898 Y73.151 E9.59844
G1 X132.898 Y73.718 E9.63667
G1 X133.286 Y73.948 E9.65168
G1 X133.713 Y74.22 E9.66852
G1 X134 Y74.413 E9.68002
G1 X134.726 Y74.949 E9.71003
G1 X135.126 Y75.29 E9.72752
G1 X135.343 Y75.485 E9.73722
G1 X135.562 Y75.688 E9.74715
G1 X135.711 Y75.83 E9.754
G1 X136.336 Y76.482 E9.78404
G1 X136.7 Y76.919 E9.80295
G1 X136.94 Y77.225 E9.81589
G1 X137.167 Y77.525 E9.8284
G1 X137.674 Y78.272 E9.85843
G1 X137.993 Y78.83 E9.87981
G1 X138.178 Y79.178 E9.89291
G1 X138.309 Y79.432 E9.90242
G1 X138.375 Y79.565 E9.90736
G1 X138.74 Y80.391 E9.93739
G1 X138.925 Y80.904 E9.95553
G1 X139.019 Y81.189 E9.96551
G1 X139.101 Y81.449 E9.97458
G1 X139.162 Y81.652 E9.98163
G1 X139.242 Y81.935 E9.99141
G1 X139.298 Y82.143 E9.99858
G1 X139.368 Y82.416 E10.00795
G1 X139.452 Y82.771 E10.02008
G1 X140.585 Y87.681 E10.18768
G1 X140.716 Y88.284 E10.20821
G1 X140.76 Y88.497 E10.21544
G1 X140.869 Y89.056 E10.23438
G1 X140.959 Y89.59 E10.25239
G1 X141.032 Y90.11 E10.26986
G1 X141.086 Y90.566 E10.28513
G1 X141.12 Y90.925 E10.29713
G1 X141.155 Y91.441 E10.31433
G1 X141.161 Y91.578 E10.31889
G1 X141.17 Y91.905 E10.32977
G1 X141.176 Y92.434 E10.34736
G1 X141.255 Y136.329 E11.80732
G1 X141.255 Y147.536 E12.18007
G1 X141.245 Y148.25 E12.20382
G1 X141.222 Y148.806 E12.22232
G1 X141.213 Y148.937 E12.22669
G1 X141.162 Y149.473 E12.2446
G1 X141.116 Y149.85 E12.25723
G1 X140.967 Y150.741 E12.28728
G1 X140.748 Y151.587 E12.31634
G1 X140.702 Y151.738 E12.32159
G1 X140.574 Y152.13 E12.33531
G1 X140.458 Y152.462 E12.34701
G1 X140.123 Y153.301 E12.37705
G1 X139.825 Y153.905 E12.39946
G1 X139.755 Y154.036 E12.4044
G1 X139.465 Y154.543 E12.42382
G1 X139.277 Y154.851 E12.43582
G1 X138.773 Y155.6 E12.46585
G1 X138.264 Y156.235 E12.49292
G1 X138.163 Y156.351 E12.49803
G1 X137.853 Y156.691 E12.51334
G1 X137.608 Y156.948 E12.52515
G1 X136.956 Y157.574 E12.55521
G1 X136.276 Y158.122 E12.58426
G1 X136.143 Y158.22 E12.58975
G1 X135.813 Y158.452 E12.60317
G1 X135.506 Y158.66 E12.6155
G1 X134.983 Y158.992 E12.63611
G1 X134.681 Y159.168 E12.64773
G1 X134.269 Y159.399 E12.66344
G1 X125.32 Y164.321 E13.00314
G1 X124.704 Y164.649 E13.02635
G1 X123.897 Y165.035 E13.0561
G1 X123.751 Y165.097 E13.06138
G1 X123.349 Y165.257 E13.07577
G1 X123.072 Y165.361 E13.08561
G1 X122.214 Y165.641 E13.11563
G1 X121.333 Y165.843 E13.14569
G1 X120.839 Y165.922 E13.16233
G1 X120.48 Y165.97 E13.17438
G1 X120.086 Y166.015 E13.18756
G1 X119.184 Y166.07 E13.21762
G1 X118.282 Y166.044 E13.24763
G1 X117.721 Y165.988 E13.26639
G1 X117.387 Y165.945 E13.27759
G1 X116.95 Y165.879 E13.29229
G1 X116.065 Y165.696 E13.32234
G1 X115.2 Y165.436 E13.35239
G1 X114.708 Y165.249 E13.36989
G1 X114.405 Y165.125 E13.38078
G1 X114.131 Y165.009 E13.39068
G1 X113.989 Y164.946 E13.39584
G1 X113.191 Y164.549 E13.42549
G1 X112.868 Y164.369 E13.43779
G1 X110.973 Y163.289 E13.51033
G1 X108.718 Y162.089 E13.59529
G1 X106.472 Y160.973 E13.67871
G1 X104.838 Y160.227 E13.73845
G1 X103.605 Y159.655 E13.78366
G1 X102.803 Y159.239 E13.81371
G1 X101.823 Y158.596 E13.85269
G1 X101.448 Y158.318 E13.86822
G1 X100.747 Y157.749 E13.89825
G1 X100.099 Y157.119 E13.92831
G1 X99.528 Y156.459 E13.95734
G1 X99.257 Y156.117 E13.97185
G1 X98.894 Y155.63 E13.99205
G1 X98.406 Y154.87 E14.02209
G1 X97.88 Y153.832 E14.06079
G1 X97.724 Y153.475 E14.07375
G1 X97.545 Y153.037 E14.08949
G1 X97.254 Y152.182 E14.11953
G1 X97.04 Y151.304 E14.14959
G1 X96.96 Y150.84 E14.16525
G1 X96.889 Y150.365 E14.18122
G1 X96.784 Y149.242 E14.21874
G1 X96.774 Y148.977 E14.22756
G1 X96.767 Y148.668 E14.23784
G1 X96.765 Y148.401 E14.24672
G1 X96.765 Y146.146 E14.32172
G1 X96.728 Y143.54 E14.4084
G1 X96.619 Y140.974 E14.49383
G1 X96.441 Y138.467 E14.57742
G1 X96.19 Y135.926 E14.66234
G1 X95.869 Y133.419 E14.74641
G1 X95.475 Y130.914 E14.83075
G1 X95.008 Y128.403 E14.9157
G1 X94.477 Y125.929 E14.99986
G1 X94.129 Y124.473 E15.04965
G1 X94.071 Y124.241 E15.0576
G1 X93.861 Y123.14 E15.09488
G1 X93.852 Y123.073 E15.09713
G1 X93.763 Y121.895 E15.13642
G1 X93.744 Y120.753 E15.17441
G1 X93.746 Y90.005 E16.19709
G1 X93.757 Y89.292 E16.22081
G1 X93.834 Y88.187 E16.25765
G1 X93.878 Y87.834 E16.26948
G1 X93.925 Y87.502 E16.28063
G1 X93.984 Y87.129 E16.2932
G1 X94.145 Y86.325 E16.32047
G1 X94.212 Y86.048 E16.32995
G1 X94.426 Y85.292 E16.35608
G1 X94.546 Y84.923 E16.36898
G1 X95.006 Y83.756 E16.41071
G1 X95.172 Y83.401 E16.42374
G1 X95.591 Y82.601 E16.45378
G1 X95.874 Y82.141 E16.47174
G1 X96.025 Y81.91 E16.48092
G1 X96.277 Y81.542 E16.49575
G1 X96.333 Y81.464 E16.49895
G1 X97.146 Y80.471 E16.54163
G1 F2700 E11.54163
;MESH:Untitled.stl
G0 F6000 X104.729 Y86.421
G0 X105.308 Y87.218
G0 X120.758 Y80.069
G0 X120.109 Y81.125
G0 X120.609 Y85.557
G0 X121.38 Y85.698
G0 X121.501 Y89.239
G0 X124.981 Y90.235
G0 X125.38 Y91.222
G0 X125.76 Y91.455
G0 X129.232 Y92.07
G0 X130.375 Y91.918
;TYPE:WALL-INNER
G1 F2700 E16.54163
G1 F1200 X130.455 Y136.331 E18.01882
G1 X130.456 Y148.07 E18.40926
G1 X130.411 Y148.487 E18.42321
G1 X130.289 Y148.853 E18.43604
G1 X130.095 Y149.182 E18.44874
G1 X129.835 Y149.463 E18.46148
G1 X129.491 Y149.703 E18.47543
G1 X119.652 Y155.115 E18.84891
G1 X119.328 Y155.242 E18.86049
G1 X119.021 Y155.277 E18.87076
G1 X118.717 Y155.233 E18.88098
G1 X118.431 Y155.11 E18.89133
G1 X118.187 Y154.919 E18.90164
G1 X118 Y154.673 E18.91192
G1 X117.885 Y154.39 E18.92208
G1 X117.839 Y154.042 E18.93375
G1 X117.838 Y137.573 E19.48151
G1 X117.703 Y137.06 E19.49916
G1 X117.295 Y136.622 E19.51907
G1 X116.717 Y136.433 E19.53929
G1 X116.133 Y136.54 E19.55904
G1 X115.688 Y136.899 E19.57806
G1 X115.545 Y137.149 E19.58764
G1 X110.494 Y149.268 E20.02432
G1 X110.341 Y149.541 E20.03473
G1 X110.148 Y149.749 E20.04417
G1 X109.918 Y149.904 E20.0534
G1 X109.655 Y150 E20.06271
G1 X109.337 Y150.038 E20.07336
G1 X108.805 Y150.038 E20.09105
G1 X108.455 Y149.992 E20.10279
G1 X108.17 Y149.874 E20.11305
G1 X107.92 Y149.683 E20.12352
G1 X107.729 Y149.433 E20.13398
G1 X107.611 Y149.148 E20.14424
G1 X107.565 Y148.798 E20.15598
G1 X107.565 Y137.555 E20.52993
G1 X107.612 Y136.257 E20.57313
G1 X107.756 Y134.964 E20.6164
G1 X107.991 Y133.707 E20.65893
G1 X108.318 Y132.47 E20.70149
G1 X108.744 Y131.236 E20.74491
G1 X111.411 Y124.346 E20.99064
G1 X111.467 Y123.831 E21.00787
G1 X111.374 Y123.506 E21.01911
G1 X111.198 Y123.213 E21.03048
G1 X110.76 Y122.877 E21.04884
G1 X110.412 Y122.781 E21.06085
G1 X109.891 Y122.839 E21.07828
G1 X108.085 Y123.544 E21.14276
G1 X108.044 Y123.549 E21.14414
G1 X108.034 Y123.506 E21.14561
G1 X108.034 Y121.543 E21.2109
G1 X107.892 Y121.115 E21.22589
G1 X107.645 Y120.745 E21.24069
G1 X107.2 Y120.494 E21.25768
G1 X106.71 Y120.481 E21.27399
G1 X106.377 Y120.565 E21.28541
G1 X104.59 Y121.62 E21.35443
G1 X104.544 Y121.606 E21.35603
G1 X104.545 Y89.498 E22.42395
G1 X104.64 Y88.83 E22.44639
G1 X104.712 Y88.537 E22.45642
G1 X104.809 Y88.256 E22.46631
G1 X104.935 Y87.997 E22.47589
G1 X105.08 Y87.783 E22.48449
G1 X105.255 Y87.601 E22.49289
G1 X105.455 Y87.457 E22.50108
G1 X120.585 Y79.918 E23.06332
G1 X120.958 Y79.777 E23.07658
G1 X121.308 Y79.721 E23.08837
G1 X121.68 Y79.736 E23.10075
G1 X121.99 Y79.813 E23.11138
G1 X123.302 Y80.643 E23.16301
G1 X124.718 Y81.498 E23.21803
G1 X126.152 Y82.324 E23.27307
G1 X126.614 Y82.577 E23.29059
G1 X127.127 Y82.858 E23.31005
G1 X127.577 Y83.105 E23.32712
G1 X127.611 Y83.127 E23.32847
G1 X127.097 Y82.914 E23.33076
G1 X126.475 Y82.833 E23.3406
G1 X125.853 Y82.914 E23.36146
G1 X125.272 Y83.155 E23.38238
G1 X124.774 Y83.537 E23.40325
G1 X124.392 Y84.035 E23.42413
G1 X124.151 Y84.616 E23.44505
G1 X124.07 Y85.238 E23.46591
G1 X124.125 Y85.658 E23.48
G1 X124.072 Y85.412
G1 X123.944 Y85.097 E23.48882
G1 X123.63 Y84.816 E23.50283
G1 X123.201 Y84.706 E23.51756
G1 X122.82 Y84.796 E23.53058
G1 X122.651 Y84.903 E23.53724
G1 X121.874 Y85.548 E23.57082
G1 X121.445 Y85.905 E23.58939
G1 X121.221 Y86.235 E23.60265
G1 X121.18 Y86.62 E23.61553
G1 X121.515 Y88.818 E23.68948
G1 X121.646 Y89.14 E23.70104
G1 X121.905 Y89.388 E23.71297
G1 X122.072 Y89.465 E23.71908
G1 X124.154 Y90.19 E23.79241
G1 X124.543 Y90.217 E23.80538
G1 X124.905 Y90.052 E23.81861
G1 X126.128 Y89.035 E23.87152
G1 X126.343 Y88.728 E23.88398
G1 X126.406 Y88.303 E23.89827
G1 X126.265 Y87.898 E23.91253
G1 X125.982 Y87.622 E23.92568
G1 X125.797 Y87.541 E23.9324
G1 X125.337 Y87.348 E23.94899
G1 X125.853 Y87.562 E23.95002
G1 X126.475 Y87.643 E23.96326
G1 X127.097 Y87.562 E23.98412
G1 X127.678 Y87.321 E24.00504
G1 X128.176 Y86.939 E24.02592
G1 X128.558 Y86.441 E24.04679
G1 X128.799 Y85.86 E24.06772
G1 X128.88 Y85.238 E24.08858
G1 X128.81 Y84.703 E24.10652
